{
  "type": "map",
  "version": "1.10",
  "orientation": "orthogonal",
  "renderorder": "right-down",
  "width": 16,
  "height": 11,
  "tilewidth": 32,
  "tileheight": 32,
  "infinite": false,
  "tilesets": [
    {
      "firstgid": 1,
      "source": "../tilesets/rp7.json"
    }
  ],
  "layers": [
    {
      "type": "tilelayer",
      "name": "ground",
      "width": 16,
      "height": 11,
      "data": [
        2,
        2,
        2,
        2,
        2,
        2,
        2,
        2,
        2,
        2,
        2,
        2,
        2,
        2,
        2,
        2,
        2,
        1,
        5,
        1,
        1,
        1,
        1,
        1,
        1,
        1,
        1,
        1,
        1,
        5,
        1,
        2,
        2,
        1,
        1,
        7,
        1,
        1,
        1,
        1,
        1,
        1,
        1,
        1,
        7,
        1,
        1,
        2,
        2,
        1,
        1,
        1,
        1,
        1,
        1,
        1,
        1,
        1,
        1,
        1,
        1,
        1,
        1,
        2,
        2,
        1,
        1,
        1,
        1,
        1,
        5,
        5,
        5,
        5,
        1,
        1,
        1,
        1,
        1,
        2,
        2,
        1,
        1,
        1,
        1,
        1,
        5,
        1,
        1,
        5,
        1,
        1,
        1,
        1,
        1,
        2,
        2,
        1,
        1,
        1,
        1,
        1,
        5,
        1,
        1,
        5,
        1,
        1,
        1,
        1,
        1,
        2,
        2,
        1,
        1,
        1,
        1,
        1,
        1,
        1,
        10,
        1,
        1,
        1,
        1,
        1,
        1,
        2,
        2,
        1,
        1,
        1,
        1,
        1,
        1,
        1,
        1,
        7,
        1,
        1,
        1,
        1,
        1,
        2,
        2,
        1,
        1,
        1,
        1,
        1,
        1,
        1,
        8,
        1,
        1,
        1,
        1,
        1,
        1,
        2,
        2,
        2,
        2,
        2,
        2,
        2,
        2,
        2,
        2,
        2,
        2,
        2,
        2,
        2,
        2,
        2
      ],
      "opacity": 1,
      "visible": true,
      "x": 0,
      "y": 0
    },
    {
      "type": "tilelayer",
      "name": "collision",
      "width": 16,
      "height": 11,
      "data": [
        1,
        1,
        1,
        1,
        1,
        1,
        1,
        1,
        1,
        1,
        1,
        1,
        1,
        1,
        1,
        1,
        1,
        0,
        1,
        0,
        0,
        0,
        0,
        0,
        0,
        0,
        0,
        0,
        0,
        1,
        0,
        1,
        1,
        0,
        0,
        1,
        0,
        0,
        0,
        0,
        0,
        0,
        0,
        0,
        1,
        0,
        0,
        1,
        1,
        0,
        0,
        0,
        0,
        0,
        0,
        0,
        0,
        0,
        0,
        0,
        0,
        0,
        0,
        1,
        1,
        0,
        0,
        0,
        0,
        0,
        1,
        1,
        1,
        1,
        0,
        0,
        0,
        0,
        0,
        1,
        1,
        0,
        0,
        0,
        0,
        0,
        1,
        0,
        0,
        1,
        0,
        0,
        0,
        0,
        0,
        1,
        1,
        0,
        0,
        0,
        0,
        0,
        1,
        0,
        0,
        1,
        0,
        0,
        0,
        0,
        0,
        1,
        1,
        0,
        0,
        0,
        0,
        0,
        0,
        0,
        0,
        0,
        0,
        0,
        0,
        0,
        0,
        1,
        1,
        0,
        0,
        0,
        0,
        0,
        0,
        0,
        0,
        1,
        0,
        0,
        0,
        0,
        0,
        1,
        1,
        0,
        0,
        0,
        0,
        0,
        0,
        0,
        0,
        0,
        0,
        0,
        0,
        0,
        0,
        1,
        1,
        1,
        1,
        1,
        1,
        1,
        1,
        1,
        1,
        1,
        1,
        1,
        1,
        1,
        1,
        1
      ],
      "opacity": 0.4,
      "visible": false,
      "x": 0,
      "y": 0
    },
    {
      "type": "objectgroup",
      "name": "events",
      "objects": [
        {
          "id": 1,
          "name": "korathen_hall_npc_8_7",
          "type": "npc",
          "x": 256,
          "y": 224,
          "width": 32,
          "height": 32,
          "visible": true,
          "rotation": 0,
          "properties": [
            {
              "name": "char",
              "type": "string",
              "value": "R"
            }
          ]
        },
        {
          "id": 2,
          "name": "korathen_hall_warp_8_9",
          "type": "warp",
          "x": 256,
          "y": 288,
          "width": 32,
          "height": 32,
          "visible": true,
          "rotation": 0,
          "properties": [
            {
              "name": "char",
              "type": "string",
              "value": "x"
            }
          ]
        }
      ],
      "opacity": 1,
      "visible": true,
      "x": 0,
      "y": 0
    }
  ]
}