{
  "type": "map",
  "version": "1.10",
  "orientation": "orthogonal",
  "renderorder": "right-down",
  "width": 30,
  "height": 20,
  "tilewidth": 32,
  "tileheight": 32,
  "infinite": false,
  "tilesets": [
    {
      "firstgid": 1,
      "source": "../tilesets/rp7.json"
    }
  ],
  "layers": [
    {
      "type": "tilelayer",
      "name": "ground",
      "width": 30,
      "height": 20,
      "data": [
        2,
        2,
        2,
        2,
        2,
        2,
        2,
        2,
        2,
        2,
        2,
        2,
        2,
        2,
        2,
        2,
        2,
        2,
        2,
        2,
        2,
        2,
        2,
        2,
        2,
        2,
        2,
        2,
        2,
        2,
        2,
        3,
        3,
        3,
        3,
        3,
        3,
        3,
        3,
        3,
        3,
        3,
        3,
        3,
        3,
        3,
        3,
        3,
        7,
        3,
        3,
        3,
        3,
        3,
        3,
        3,
        3,
        3,
        3,
        2,
        2,
        3,
        3,
        9,
        3,
        3,
        6,
        6,
        6,
        6,
        3,
        3,
        3,
        3,
        3,
        26,
        26,
        11,
        11,
        3,
        3,
        3,
        9,
        3,
        3,
        3,
        3,
        3,
        3,
        2,
        2,
        16,
        11,
        11,
        3,
        3,
        6,
        6,
        6,
        6,
        3,
        3,
        3,
        3,
        3,
        3,
        3,
        31,
        11,
        3,
        3,
        3,
        3,
        3,
        3,
        32,
        3,
        3,
        3,
        2,
        2,
        16,
        33,
        11,
        3,
        3,
        3,
        6,
        6,
        6,
        3,
        3,
        34,
        3,
        3,
        3,
        3,
        3,
        3,
        35,
        3,
        3,
        3,
        3,
        3,
        3,
        9,
        3,
        3,
        2,
        2,
        3,
        3,
        3,
        3,
        3,
        3,
        3,
        3,
        3,
        3,
        3,
        3,
        3,
        3,
        3,
        3,
        3,
        3,
        36,
        3,
        3,
        3,
        3,
        3,
        3,
        3,
        3,
        3,
        2,
        2,
        16,
        3,
        3,
        3,
        37,
        3,
        3,
        3,
        3,
        3,
        3,
        3,
        3,
        9,
        3,
        3,
        3,
        3,
        3,
        3,
        6,
        6,
        3,
        3,
        3,
        3,
        3,
        2,
        2,
        2,
        3,
        3,
        3,
        3,
        3,
        3,
        3,
        3,
        3,
        3,
        3,
        3,
        3,
        3,
        3,
        3,
        3,
        3,
        38,
        3,
        6,
        6,
        6,
        6,
        3,
        3,
        3,
        3,
        2,
        2,
        16,
        3,
        3,
        6,
        6,
        3,
        3,
        3,
        3,
        3,
        3,
        3,
        3,
        3,
        3,
        3,
        3,
        3,
        3,
        6,
        6,
        6,
        3,
        3,
        3,
        3,
        3,
        2,
        2,
        2,
        3,
        3,
        6,
        6,
        6,
        6,
        3,
        3,
        3,
        3,
        3,
        3,
        3,
        3,
        3,
        3,
        3,
        39,
        3,
        3,
        3,
        3,
        3,
        3,
        3,
        3,
        9,
        3,
        2,
        2,
        3,
        3,
        17,
        17,
        17,
        3,
        3,
        3,
        3,
        3,
        3,
        3,
        3,
        3,
        3,
        3,
        3,
        3,
        3,
        3,
        3,
        3,
        3,
        3,
        3,
        3,
        3,
        3,
        40,
        2,
        3,
        3,
        17,
        17,
        17,
        3,
        3,
        3,
        3,
        9,
        3,
        3,
        3,
        3,
        3,
        3,
        6,
        6,
        6,
        3,
        3,
        3,
        3,
        3,
        3,
        3,
        3,
        3,
        2,
        2,
        3,
        3,
        3,
        3,
        3,
        12,
        12,
        12,
        3,
        3,
        3,
        11,
        11,
        3,
        3,
        6,
        6,
        6,
        6,
        6,
        3,
        3,
        3,
        3,
        3,
        3,
        3,
        3,
        2,
        2,
        16,
        3,
        3,
        3,
        3,
        12,
        12,
        12,
        3,
        3,
        3,
        41,
        11,
        3,
        3,
        3,
        6,
        6,
        6,
        6,
        3,
        3,
        3,
        3,
        3,
        3,
        3,
        3,
        2,
        2,
        3,
        3,
        3,
        3,
        3,
        12,
        42,
        12,
        3,
        3,
        3,
        3,
        3,
        43,
        3,
        3,
        3,
        3,
        9,
        3,
        3,
        9,
        3,
        3,
        3,
        3,
        3,
        3,
        2,
        2,
        3,
        3,
        3,
        3,
        3,
        3,
        3,
        3,
        3,
        3,
        3,
        3,
        3,
        3,
        3,
        3,
        3,
        3,
        3,
        3,
        3,
        3,
        7,
        3,
        3,
        3,
        3,
        3,
        2,
        2,
        3,
        3,
        3,
        3,
        19,
        19,
        19,
        3,
        3,
        3,
        3,
        3,
        3,
        3,
        3,
        3,
        3,
        3,
        3,
        3,
        3,
        3,
        3,
        3,
        3,
        3,
        3,
        3,
        2,
        2,
        3,
        3,
        3,
        3,
        19,
        44,
        19,
        3,
        3,
        3,
        3,
        3,
        3,
        3,
        3,
        3,
        3,
        3,
        3,
        3,
        3,
        3,
        3,
        3,
        3,
        3,
        3,
        2,
        2,
        2,
        16,
        3,
        3,
        3,
        3,
        3,
        3,
        3,
        3,
        3,
        3,
        3,
        3,
        3,
        3,
        3,
        3,
        3,
        3,
        3,
        3,
        3,
        3,
        3,
        3,
        3,
        3,
        2,
        2,
        2,
        2,
        2,
        2,
        2,
        2,
        2,
        2,
        2,
        2,
        2,
        2,
        2,
        2,
        2,
        2,
        2,
        2,
        2,
        2,
        2,
        2,
        2,
        2,
        2,
        2,
        2,
        2,
        2,
        2
      ],
      "opacity": 1,
      "visible": true,
      "x": 0,
      "y": 0
    },
    {
      "type": "tilelayer",
      "name": "collision",
      "width": 30,
      "height": 20,
      "data": [
        1,
        1,
        1,
        1,
        1,
        1,
        1,
        1,
        1,
        1,
        1,
        1,
        1,
        1,
        1,
        1,
        1,
        1,
        1,
        1,
        1,
        1,
        1,
        1,
        1,
        1,
        1,
        1,
        1,
        1,
        1,
        0,
        0,
        0,
        0,
        0,
        0,
        0,
        0,
        0,
        0,
        0,
        0,
        0,
        0,
        0,
        0,
        0,
        1,
        0,
        0,
        0,
        0,
        0,
        0,
        0,
        0,
        0,
        0,
        1,
        1,
        0,
        0,
        0,
        0,
        0,
        0,
        0,
        0,
        0,
        0,
        0,
        0,
        0,
        0,
        1,
        1,
        1,
        1,
        0,
        0,
        0,
        0,
        0,
        0,
        0,
        0,
        0,
        0,
        1,
        1,
        1,
        1,
        1,
        0,
        0,
        0,
        0,
        0,
        0,
        0,
        0,
        0,
        0,
        0,
        0,
        0,
        0,
        1,
        0,
        0,
        0,
        0,
        0,
        0,
        1,
        0,
        0,
        0,
        1,
        1,
        1,
        0,
        1,
        0,
        0,
        0,
        0,
        0,
        0,
        0,
        0,
        0,
        0,
        0,
        0,
        0,
        0,
        0,
        1,
        0,
        0,
        0,
        0,
        0,
        0,
        0,
        0,
        0,
        1,
        1,
        0,
        0,
        0,
        0,
        0,
        0,
        0,
        0,
        0,
        0,
        0,
        0,
        0,
        0,
        0,
        0,
        0,
        0,
        1,
        0,
        0,
        0,
        0,
        0,
        0,
        0,
        0,
        0,
        1,
        1,
        1,
        0,
        0,
        0,
        0,
        0,
        0,
        0,
        0,
        0,
        0,
        0,
        0,
        0,
        0,
        0,
        0,
        0,
        0,
        0,
        0,
        0,
        0,
        0,
        0,
        0,
        0,
        1,
        1,
        1,
        0,
        0,
        0,
        0,
        0,
        0,
        0,
        0,
        0,
        0,
        0,
        0,
        0,
        0,
        0,
        0,
        0,
        0,
        0,
        0,
        0,
        0,
        0,
        0,
        0,
        0,
        0,
        0,
        1,
        1,
        1,
        0,
        0,
        0,
        0,
        0,
        0,
        0,
        0,
        0,
        0,
        0,
        0,
        0,
        0,
        0,
        0,
        0,
        0,
        0,
        0,
        0,
        0,
        0,
        0,
        0,
        0,
        1,
        1,
        1,
        0,
        0,
        0,
        0,
        0,
        0,
        0,
        0,
        0,
        0,
        0,
        0,
        0,
        0,
        0,
        0,
        0,
        1,
        0,
        0,
        0,
        0,
        0,
        0,
        0,
        0,
        0,
        0,
        1,
        1,
        0,
        0,
        1,
        1,
        1,
        0,
        0,
        0,
        0,
        0,
        0,
        0,
        0,
        0,
        0,
        0,
        0,
        0,
        0,
        0,
        0,
        0,
        0,
        0,
        0,
        0,
        0,
        0,
        0,
        1,
        0,
        0,
        1,
        1,
        1,
        0,
        0,
        0,
        0,
        0,
        0,
        0,
        0,
        0,
        0,
        0,
        0,
        0,
        0,
        0,
        0,
        0,
        0,
        0,
        0,
        0,
        0,
        0,
        1,
        1,
        0,
        0,
        0,
        0,
        0,
        1,
        1,
        1,
        0,
        0,
        0,
        1,
        1,
        0,
        0,
        0,
        0,
        0,
        0,
        0,
        0,
        0,
        0,
        0,
        0,
        0,
        0,
        0,
        1,
        1,
        1,
        0,
        0,
        0,
        0,
        1,
        1,
        1,
        0,
        0,
        0,
        0,
        1,
        0,
        0,
        0,
        0,
        0,
        0,
        0,
        0,
        0,
        0,
        0,
        0,
        0,
        0,
        0,
        1,
        1,
        0,
        0,
        0,
        0,
        0,
        1,
        0,
        1,
        0,
        0,
        0,
        0,
        0,
        0,
        0,
        0,
        0,
        0,
        0,
        0,
        0,
        0,
        0,
        0,
        0,
        0,
        0,
        0,
        1,
        1,
        0,
        0,
        0,
        0,
        0,
        0,
        0,
        0,
        0,
        0,
        0,
        0,
        0,
        0,
        0,
        0,
        0,
        0,
        0,
        0,
        0,
        0,
        1,
        0,
        0,
        0,
        0,
        0,
        1,
        1,
        0,
        0,
        0,
        0,
        1,
        1,
        1,
        0,
        0,
        0,
        0,
        0,
        0,
        0,
        0,
        0,
        0,
        0,
        0,
        0,
        0,
        0,
        0,
        0,
        0,
        0,
        0,
        0,
        1,
        1,
        0,
        0,
        0,
        0,
        1,
        0,
        1,
        0,
        0,
        0,
        0,
        0,
        0,
        0,
        0,
        0,
        0,
        0,
        0,
        0,
        0,
        0,
        0,
        0,
        0,
        0,
        0,
        1,
        1,
        1,
        1,
        0,
        0,
        0,
        0,
        0,
        0,
        0,
        0,
        0,
        0,
        0,
        0,
        0,
        0,
        0,
        0,
        0,
        0,
        0,
        0,
        0,
        0,
        0,
        0,
        0,
        0,
        1,
        1,
        1,
        1,
        1,
        1,
        1,
        1,
        1,
        1,
        1,
        1,
        1,
        1,
        1,
        1,
        1,
        1,
        1,
        1,
        1,
        1,
        1,
        1,
        1,
        1,
        1,
        1,
        1,
        1,
        1,
        1
      ],
      "opacity": 0.4,
      "visible": false,
      "x": 0,
      "y": 0
    },
    {
      "type": "objectgroup",
      "name": "events",
      "objects": [
        {
          "id": 1,
          "name": "malezor_chest_3_2",
          "type": "chest",
          "x": 96,
          "y": 64,
          "width": 32,
          "height": 32,
          "visible": true,
          "rotation": 0,
          "properties": [
            {
              "name": "char",
              "type": "string",
              "value": "K"
            }
          ]
        },
        {
          "id": 2,
          "name": "malezor_chest_22_2",
          "type": "chest",
          "x": 704,
          "y": 64,
          "width": 32,
          "height": 32,
          "visible": true,
          "rotation": 0,
          "properties": [
            {
              "name": "char",
              "type": "string",
              "value": "K"
            }
          ]
        },
        {
          "id": 3,
          "name": "malezor_warp_17_3",
          "type": "warp",
          "x": 544,
          "y": 96,
          "width": 32,
          "height": 32,
          "visible": true,
          "rotation": 0,
          "properties": [
            {
              "name": "char",
              "type": "string",
              "value": "p"
            }
          ]
        },
        {
          "id": 4,
          "name": "malezor_warp_2_4",
          "type": "warp",
          "x": 64,
          "y": 128,
          "width": 32,
          "height": 32,
          "visible": true,
          "rotation": 0,
          "properties": [
            {
              "name": "char",
              "type": "string",
              "value": "H"
            }
          ]
        },
        {
          "id": 5,
          "name": "malezor_npc_12_4",
          "type": "npc",
          "x": 384,
          "y": 128,
          "width": 32,
          "height": 32,
          "visible": true,
          "rotation": 0,
          "properties": [
            {
              "name": "char",
              "type": "string",
              "value": "Y"
            }
          ]
        },
        {
          "id": 6,
          "name": "malezor_chest_26_4",
          "type": "chest",
          "x": 832,
          "y": 128,
          "width": 32,
          "height": 32,
          "visible": true,
          "rotation": 0,
          "properties": [
            {
              "name": "char",
              "type": "string",
              "value": "K"
            }
          ]
        },
        {
          "id": 7,
          "name": "malezor_chest_14_6",
          "type": "chest",
          "x": 448,
          "y": 192,
          "width": 32,
          "height": 32,
          "visible": true,
          "rotation": 0,
          "properties": [
            {
              "name": "char",
              "type": "string",
              "value": "K"
            }
          ]
        },
        {
          "id": 8,
          "name": "malezor_npc_19_7",
          "type": "npc",
          "x": 608,
          "y": 224,
          "width": 32,
          "height": 32,
          "visible": true,
          "rotation": 0,
          "properties": [
            {
              "name": "char",
              "type": "string",
              "value": "J"
            }
          ]
        },
        {
          "id": 9,
          "name": "malezor_chest_27_9",
          "type": "chest",
          "x": 864,
          "y": 288,
          "width": 32,
          "height": 32,
          "visible": true,
          "rotation": 0,
          "properties": [
            {
              "name": "char",
              "type": "string",
              "value": "K"
            }
          ]
        },
        {
          "id": 10,
          "name": "malezor_warp_29_10",
          "type": "warp",
          "x": 928,
          "y": 320,
          "width": 32,
          "height": 32,
          "visible": true,
          "rotation": 0,
          "properties": [
            {
              "name": "char",
              "type": "string",
              "value": ">"
            }
          ]
        },
        {
          "id": 11,
          "name": "malezor_chest_10_11",
          "type": "chest",
          "x": 320,
          "y": 352,
          "width": 32,
          "height": 32,
          "visible": true,
          "rotation": 0,
          "properties": [
            {
              "name": "char",
              "type": "string",
              "value": "K"
            }
          ]
        },
        {
          "id": 12,
          "name": "malezor_warp_12_13",
          "type": "warp",
          "x": 384,
          "y": 416,
          "width": 32,
          "height": 32,
          "visible": true,
          "rotation": 0,
          "properties": [
            {
              "name": "char",
              "type": "string",
              "value": "q"
            }
          ]
        },
        {
          "id": 13,
          "name": "malezor_npc_14_14",
          "type": "npc",
          "x": 448,
          "y": 448,
          "width": 32,
          "height": 32,
          "visible": true,
          "rotation": 0,
          "properties": [
            {
              "name": "char",
              "type": "string",
              "value": "Q"
            }
          ]
        },
        {
          "id": 14,
          "name": "malezor_chest_19_14",
          "type": "chest",
          "x": 608,
          "y": 448,
          "width": 32,
          "height": 32,
          "visible": true,
          "rotation": 0,
          "properties": [
            {
              "name": "char",
              "type": "string",
              "value": "K"
            }
          ]
        },
        {
          "id": 15,
          "name": "malezor_chest_22_14",
          "type": "chest",
          "x": 704,
          "y": 448,
          "width": 32,
          "height": 32,
          "visible": true,
          "rotation": 0,
          "properties": [
            {
              "name": "char",
              "type": "string",
              "value": "K"
            }
          ]
        }
      ],
      "opacity": 1,
      "visible": true,
      "x": 0,
      "y": 0
    }
  ]
}