{
  "type": "map",
  "version": "1.10",
  "orientation": "orthogonal",
  "renderorder": "right-down",
  "width": 14,
  "height": 9,
  "tilewidth": 32,
  "tileheight": 32,
  "infinite": false,
  "tilesets": [
    {
      "firstgid": 1,
      "source": "../tilesets/rp7.json"
    }
  ],
  "layers": [
    {
      "type": "tilelayer",
      "name": "ground",
      "width": 14,
      "height": 9,
      "data": [
        4,
        4,
        4,
        4,
        4,
        4,
        4,
        4,
        4,
        4,
        4,
        4,
        4,
        4,
        4,
        1,
        1,
        1,
        1,
        1,
        1,
        1,
        1,
        1,
        1,
        1,
        24,
        4,
        4,
        1,
        1,
        1,
        1,
        1,
        1,
        1,
        1,
        1,
        1,
        1,
        1,
        4,
        4,
        1,
        1,
        20,
        1,
        1,
        1,
        1,
        1,
        54,
        1,
        1,
        1,
        4,
        4,
        1,
        1,
        1,
        1,
        1,
        1,
        1,
        1,
        1,
        1,
        1,
        1,
        4,
        4,
        1,
        1,
        1,
        1,
        1,
        55,
        1,
        1,
        1,
        1,
        1,
        1,
        4,
        4,
        1,
        1,
        1,
        1,
        1,
        1,
        1,
        1,
        1,
        1,
        1,
        1,
        4,
        4,
        1,
        1,
        14,
        1,
        1,
        1,
        1,
        1,
        1,
        1,
        1,
        1,
        4,
        4,
        4,
        4,
        4,
        4,
        4,
        4,
        4,
        4,
        4,
        4,
        4,
        4,
        4
      ],
      "opacity": 1,
      "visible": true,
      "x": 0,
      "y": 0
    },
    {
      "type": "tilelayer",
      "name": "collision",
      "width": 14,
      "height": 9,
      "data": [
        1,
        1,
        1,
        1,
        1,
        1,
        1,
        1,
        1,
        1,
        1,
        1,
        1,
        1,
        1,
        0,
        0,
        0,
        0,
        0,
        0,
        0,
        0,
        0,
        0,
        0,
        0,
        1,
        1,
        0,
        0,
        0,
        0,
        0,
        0,
        0,
        0,
        0,
        0,
        0,
        0,
        1,
        1,
        0,
        0,
        1,
        0,
        0,
        0,
        0,
        0,
        1,
        0,
        0,
        0,
        1,
        1,
        0,
        0,
        0,
        0,
        0,
        0,
        0,
        0,
        0,
        0,
        0,
        0,
        1,
        1,
        0,
        0,
        0,
        0,
        0,
        1,
        0,
        0,
        0,
        0,
        0,
        0,
        1,
        1,
        0,
        0,
        0,
        0,
        0,
        0,
        0,
        0,
        0,
        0,
        0,
        0,
        1,
        1,
        0,
        0,
        1,
        0,
        0,
        0,
        0,
        0,
        0,
        0,
        0,
        0,
        1,
        1,
        1,
        1,
        1,
        1,
        1,
        1,
        1,
        1,
        1,
        1,
        1,
        1,
        1
      ],
      "opacity": 0.4,
      "visible": false,
      "x": 0,
      "y": 0
    },
    {
      "type": "objectgroup",
      "name": "events",
      "objects": [
        {
          "id": 1,
          "name": "parents_bedroom_warp_12_1",
          "type": "warp",
          "x": 384,
          "y": 32,
          "width": 32,
          "height": 32,
          "visible": true,
          "rotation": 0,
          "properties": [
            {
              "name": "char",
              "type": "string",
              "value": "w"
            }
          ]
        }
      ],
      "opacity": 1,
      "visible": true,
      "x": 0,
      "y": 0
    }
  ]
}