{
  "type": "map",
  "version": "1.10",
  "orientation": "orthogonal",
  "renderorder": "right-down",
  "width": 16,
  "height": 10,
  "tilewidth": 32,
  "tileheight": 32,
  "infinite": false,
  "tilesets": [
    {
      "firstgid": 1,
      "source": "../tilesets/rp7.json"
    }
  ],
  "layers": [
    {
      "type": "tilelayer",
      "name": "ground",
      "width": 16,
      "height": 10,
      "data": [
        2,
        2,
        2,
        2,
        2,
        2,
        2,
        2,
        2,
        2,
        2,
        2,
        2,
        2,
        2,
        2,
        2,
        1,
        1,
        1,
        1,
        1,
        1,
        1,
        1,
        1,
        1,
        1,
        1,
        1,
        1,
        2,
        2,
        1,
        21,
        1,
        1,
        1,
        1,
        1,
        1,
        1,
        1,
        1,
        1,
        21,
        1,
        2,
        2,
        1,
        1,
        1,
        1,
        1,
        1,
        1,
        1,
        1,
        1,
        1,
        1,
        1,
        1,
        2,
        2,
        1,
        1,
        1,
        1,
        1,
        1,
        1,
        1,
        1,
        1,
        1,
        1,
        1,
        1,
        2,
        2,
        1,
        1,
        1,
        1,
        1,
        1,
        1,
        1,
        1,
        1,
        1,
        1,
        24,
        1,
        2,
        2,
        1,
        1,
        1,
        1,
        1,
        1,
        1,
        1,
        1,
        1,
        1,
        1,
        23,
        1,
        2,
        2,
        1,
        1,
        1,
        1,
        1,
        1,
        1,
        1,
        1,
        1,
        1,
        1,
        1,
        1,
        2,
        2,
        1,
        1,
        1,
        1,
        1,
        1,
        1,
        8,
        1,
        1,
        1,
        1,
        1,
        1,
        2,
        2,
        2,
        2,
        2,
        2,
        2,
        2,
        2,
        2,
        2,
        2,
        2,
        2,
        2,
        2,
        2
      ],
      "opacity": 1,
      "visible": true,
      "x": 0,
      "y": 0
    },
    {
      "type": "tilelayer",
      "name": "collision",
      "width": 16,
      "height": 10,
      "data": [
        1,
        1,
        1,
        1,
        1,
        1,
        1,
        1,
        1,
        1,
        1,
        1,
        1,
        1,
        1,
        1,
        1,
        0,
        0,
        0,
        0,
        0,
        0,
        0,
        0,
        0,
        0,
        0,
        0,
        0,
        0,
        1,
        1,
        0,
        0,
        0,
        0,
        0,
        0,
        0,
        0,
        0,
        0,
        0,
        0,
        0,
        0,
        1,
        1,
        0,
        0,
        0,
        0,
        0,
        0,
        0,
        0,
        0,
        0,
        0,
        0,
        0,
        0,
        1,
        1,
        0,
        0,
        0,
        0,
        0,
        0,
        0,
        0,
        0,
        0,
        0,
        0,
        0,
        0,
        1,
        1,
        0,
        0,
        0,
        0,
        0,
        0,
        0,
        0,
        0,
        0,
        0,
        0,
        0,
        0,
        1,
        1,
        0,
        0,
        0,
        0,
        0,
        0,
        0,
        0,
        0,
        0,
        0,
        0,
        0,
        0,
        1,
        1,
        0,
        0,
        0,
        0,
        0,
        0,
        0,
        0,
        0,
        0,
        0,
        0,
        0,
        0,
        1,
        1,
        0,
        0,
        0,
        0,
        0,
        0,
        0,
        0,
        0,
        0,
        0,
        0,
        0,
        0,
        1,
        1,
        1,
        1,
        1,
        1,
        1,
        1,
        1,
        1,
        1,
        1,
        1,
        1,
        1,
        1,
        1
      ],
      "opacity": 0.4,
      "visible": false,
      "x": 0,
      "y": 0
    },
    {
      "type": "objectgroup",
      "name": "events",
      "objects": [
        {
          "id": 1,
          "name": "seer_hq_main_npc_2_2",
          "type": "npc",
          "x": 64,
          "y": 64,
          "width": 32,
          "height": 32,
          "visible": true,
          "rotation": 0,
          "properties": [
            {
              "name": "char",
              "type": "string",
              "value": "g"
            }
          ]
        },
        {
          "id": 2,
          "name": "seer_hq_main_npc_13_2",
          "type": "npc",
          "x": 416,
          "y": 64,
          "width": 32,
          "height": 32,
          "visible": true,
          "rotation": 0,
          "properties": [
            {
              "name": "char",
              "type": "string",
              "value": "g"
            }
          ]
        },
        {
          "id": 3,
          "name": "seer_hq_main_warp_13_5",
          "type": "warp",
          "x": 416,
          "y": 160,
          "width": 32,
          "height": 32,
          "visible": true,
          "rotation": 0,
          "properties": [
            {
              "name": "char",
              "type": "string",
              "value": "w"
            }
          ]
        },
        {
          "id": 4,
          "name": "seer_hq_main_warp_13_6",
          "type": "warp",
          "x": 416,
          "y": 192,
          "width": 32,
          "height": 32,
          "visible": true,
          "rotation": 0,
          "properties": [
            {
              "name": "char",
              "type": "string",
              "value": "U"
            }
          ]
        },
        {
          "id": 5,
          "name": "seer_hq_main_warp_8_8",
          "type": "warp",
          "x": 256,
          "y": 256,
          "width": 32,
          "height": 32,
          "visible": true,
          "rotation": 0,
          "properties": [
            {
              "name": "char",
              "type": "string",
              "value": "x"
            }
          ]
        }
      ],
      "opacity": 1,
      "visible": true,
      "x": 0,
      "y": 0
    }
  ]
}