{
  "type": "map",
  "version": "1.10",
  "orientation": "orthogonal",
  "renderorder": "right-down",
  "width": 12,
  "height": 7,
  "tilewidth": 32,
  "tileheight": 32,
  "infinite": false,
  "tilesets": [
    {
      "firstgid": 1,
      "source": "../tilesets/rp7.json"
    }
  ],
  "layers": [
    {
      "type": "tilelayer",
      "name": "ground",
      "width": 12,
      "height": 7,
      "data": [
        4,
        4,
        4,
        4,
        4,
        4,
        4,
        4,
        4,
        4,
        4,
        4,
        4,
        1,
        1,
        20,
        1,
        1,
        1,
        1,
        1,
        1,
        1,
        4,
        4,
        1,
        1,
        1,
        1,
        9,
        1,
        1,
        1,
        1,
        14,
        4,
        4,
        1,
        1,
        1,
        1,
        1,
        1,
        1,
        9,
        1,
        1,
        4,
        4,
        1,
        14,
        1,
        1,
        1,
        1,
        1,
        1,
        1,
        1,
        4,
        4,
        1,
        1,
        1,
        1,
        8,
        1,
        1,
        1,
        1,
        1,
        4,
        4,
        4,
        4,
        4,
        4,
        4,
        4,
        4,
        4,
        4,
        4,
        4
      ],
      "opacity": 1,
      "visible": true,
      "x": 0,
      "y": 0
    },
    {
      "type": "tilelayer",
      "name": "collision",
      "width": 12,
      "height": 7,
      "data": [
        1,
        1,
        1,
        1,
        1,
        1,
        1,
        1,
        1,
        1,
        1,
        1,
        1,
        0,
        0,
        1,
        0,
        0,
        0,
        0,
        0,
        0,
        0,
        1,
        1,
        0,
        0,
        0,
        0,
        0,
        0,
        0,
        0,
        0,
        1,
        1,
        1,
        0,
        0,
        0,
        0,
        0,
        0,
        0,
        0,
        0,
        0,
        1,
        1,
        0,
        1,
        0,
        0,
        0,
        0,
        0,
        0,
        0,
        0,
        1,
        1,
        0,
        0,
        0,
        0,
        0,
        0,
        0,
        0,
        0,
        0,
        1,
        1,
        1,
        1,
        1,
        1,
        1,
        1,
        1,
        1,
        1,
        1,
        1
      ],
      "opacity": 0.4,
      "visible": false,
      "x": 0,
      "y": 0
    },
    {
      "type": "objectgroup",
      "name": "events",
      "objects": [
        {
          "id": 1,
          "name": "sunlit_cottage_chest_5_2",
          "type": "chest",
          "x": 160,
          "y": 64,
          "width": 32,
          "height": 32,
          "visible": true,
          "rotation": 0,
          "properties": [
            {
              "name": "char",
              "type": "string",
              "value": "K"
            }
          ]
        },
        {
          "id": 2,
          "name": "sunlit_cottage_chest_8_3",
          "type": "chest",
          "x": 256,
          "y": 96,
          "width": 32,
          "height": 32,
          "visible": true,
          "rotation": 0,
          "properties": [
            {
              "name": "char",
              "type": "string",
              "value": "K"
            }
          ]
        },
        {
          "id": 3,
          "name": "sunlit_cottage_warp_5_5",
          "type": "warp",
          "x": 160,
          "y": 160,
          "width": 32,
          "height": 32,
          "visible": true,
          "rotation": 0,
          "properties": [
            {
              "name": "char",
              "type": "string",
              "value": "x"
            }
          ]
        }
      ],
      "opacity": 1,
      "visible": true,
      "x": 0,
      "y": 0
    }
  ]
}